X:114
T:Buttermilk Mary
R:jig
Z:id:hn-jig-114
M:6/8
K:A
cAF FEC|EAc ecA|~d3 ecA|BcA Bcd|
cde efg|agf ged|cec dBe|1 ABA A2B:|2 ABA Acd||
|:eaa agf|ecA Ace|fbb b2a|gbg efg|
a2f gbg|fgf efg|aec BAB|1 cAG Acd:|2 cAG A2B||

